X:1
T:Title
%%score { ( 1 4 ) | ( 2 3 ) }
L:1/8
M:6/8
K:C
V:1 treble nm="Grand Piano"
V:4 treble 
V:2 bass 
V:3 bass 
V:1
 z3 z2[Q:1/4=95] [EG] | [Ec]2 [EG] [_E^F]2 [=EG] | [CE]3- [CE]2 [EG] | [EG][Ge][Fd] [Ec][Fd][Ec] | %4
[M:5/8] B-B- B3 |[M:1/8] [DFG] |[M:3/4] [EG]^F [EG] [CEc]2 [CG] | [CFA]4- [CFA]A | Gc eG A[DFB] | %9
[M:5/8] c-c- c3 |[M:1/8] B |[M:3/4] B2 Bc BA | G2 A B3 | GA [B,DG] [A,D^F]3 | ^F2 z2 z2 | %15
 [DB]2 [DB][Ec] BA | G2 A B2 B | [Bd]c [DGB]A z [EAc] |[M:7/8] [D^FB]2 [CFA] [B,G]3 [B,=FG] | %19
[M:3/4] [CEc]2 [CEG] [C_E^F]2 [C=EG] | [CE]4- [CE][EG] | [EG][Ge] [Fd][Ec] [Fd][Ec] | %22
[M:5/8] B3- [DFB]2 |[M:1/8] [DFG] |[M:3/4] [EG]^F [EG] [CEc]2 [CG] | [CFA]4- [CFA]A | %26
 Gc eG A[DFB] |[M:13/8] c2- [Fc-] [E-c]2 E z z z z z z2 |] %28
V:2
 z3 z2 [C,C] | [C,C]2 [C,C] [C,C]2 [C,C] | C,2 C, C,2 [C,C] | z3 .G,3 |[M:5/8] G,2 G, G,A, | %5
[M:1/8] B, |[M:3/4] C2 z2 z2 | F,2 F, F,2 [F,CF] | [G,E]2 [G,G][G,F]- [G,CF]G, | %9
[M:5/8][K:bass] z2 A, G,2 |[M:1/8] [G,D] |[M:3/4][K:treble] [G,D]2 [G,D]E D[G,CD] | %12
 [G,B,D]2 [G,CD] [G,D]3 | [D,D]2 z2 z2 | z D D, G,2 G, | G,2 .G,2 D[K:treble][G,CD] | %16
 [G,B,D]2 [G,CD] [G,D]2 [G,DG] | z A[K:bass] .G,2[K:treble] B[K:bass]A,, |[M:7/8] D,2 D, G,,3 G, | %19
[M:3/4] C,2 C, C,2 C, | C,2 C, C,2 [C,C] | [C,C]2 [C,G,]G,- [B,,G,][C,G,] |[M:5/8] G,2 G, G,A, | %23
[M:1/8] B, |[M:3/4] C2 z2 z2 | F,2 F, F,2 [F,CF] | [G,E]2 [G,G][G,F]- [G,CF]G, | %27
[M:13/8][K:bass] z2 A, .G,3 z z z z z z2 |] %28
V:3
 x6 | x6 | x6 | [C,C]2 [C,G,] C,B,,[C,G,] |[M:5/8] x5 |[M:1/8] x |[M:3/4] z _E C C,2 E, | x6 | %8
 z2 z B, z2 |[M:5/8][K:bass] C,-C,- C,3 |[M:1/8] x |[M:3/4][K:treble] z2 z .G,3 | x6 | B,C D, D,3 | %14
 D,2 z2 z2 | z2 z .G,3[K:treble] | x6 | [G,D]2[K:bass] z .C,3[K:treble][K:bass] |[M:7/8] x7 | %19
[M:3/4] x6 | x6 | z2 z C, z2 |[M:5/8] x5 |[M:1/8] x |[M:3/4] z _E C C,2 E, | x6 | z2 z B, z2 | %27
[M:13/8][K:bass] C,-C,- C,3 z z z z z z z2 |] %28
V:4
 x6 | x6 | x6 | x6 |[M:5/8] D3 [DF]2 |[M:1/8] x |[M:3/4] x6 | x6 | x6 |[M:5/8] [CE]2 F E2 | %10
[M:1/8] x |[M:3/4] x6 | x6 | x6 | [CA]B [C^FA] [B,G]2 [DB] | x6 | x6 | z2 z .[EG]3 |[M:7/8] x7 | %19
[M:3/4] x6 | x6 | x6 |[M:5/8] D3 z2 |[M:1/8] x |[M:3/4] x6 | x6 | x6 | %27
[M:13/8] .[CE]3 z z z z z z z z z2 |] %28

